X: 36288
T: Seamus Danagher's
R: slide
M: 12/8
K: Gmajor
|:G2D G2A B2G d2e|d2G cBA d2G cBA|
G2G G2A B3 d2e|d2G cBA G3 G3:|
|:g2f e2d e2f g2e|d2G cBA d2G c2A|
g2f e2d e2f g2e|d2G cBA G3 G3:|

